X:255
T: Mickey Callaghan's #1
S: B.Breathnach: "Ceol Rince na hEireann" II/59 (gan ainm)
Z: B.Black
N: Close relative of "Patsy Geary's"
L: 1/8
M: 6/8
R: jig
K: D
AFB AFA|BAF A3|AdB AFA|d3 d2e|
ff/e/f g2f|efe d2B|AF/F/F DED|EE/D/E EFG|
A2B AFA|BAF A3|AdB AFA|d3 d2e|
ff/e/f g2f|efe d2B|ea/a/a f2e|d3 d2||
e|f2e f2e|f2e fga|AA/A/A BAF|A3 AB/c/d|
e2f e2f|e2f efg|agf gfe|1 d3 d2 :|2 dfe dcB ||

